img/views.svg

<svg fill="none" height="16" viewBox="0 0 16 16" width="16" xmlns="http://www.w3.org/2000/svg"><path d="m8 6.2c-.50632 0-.99191.18964-1.34993.52721-.35803.33756-.55916.7954-.55916 1.27279s.20113.93523.55916 1.27279c.35802.33757.84361.52721 1.34993.52721s.99191-.18964 1.34993-.52721c.35803-.33756.55916-.7954.55916-1.27279s-.20113-.93523-.55916-1.27279c-.35802-.33757-.84361-.52721-1.34993-.52721zm0 4.8c-.84387 0-1.65318-.3161-2.24989-.8787-.5967-.56259-.93193-1.32565-.93193-2.1213s.33523-1.55871.93193-2.12132c.59671-.56261 1.40602-.87868 2.24989-.87868s1.65318.31607 2.2499.87868c.5967.56261.9319 1.32567.9319 2.12132s-.3352 1.55871-.9319 2.1213c-.59672.5626-1.40603.8787-2.2499.8787zm0-7.5c-3.18182 0-5.89909 1.866-7 4.5 1.10091 2.634 3.81818 4.5 7 4.5 3.1818 0 5.8991-1.866 7-4.5-1.1009-2.634-3.8182-4.5-7-4.5z" fill="#008699"/></svg>

<svg width="16" height="16" viewBox="0 0 16 16" fill="none" xmlns="http://www.w3.org/2000/svg">
<path d="M8 6.2C7.49368 6.2 7.00809 6.38964 6.65007 6.72721C6.29204 7.06477 6.09091 7.52261 6.09091 8C6.09091 8.47739 6.29204 8.93523 6.65007 9.27279C7.00809 9.61036 7.49368 9.8 8 9.8C8.50632 9.8 8.99191 9.61036 9.34993 9.27279C9.70796 8.93523 9.90909 8.47739 9.90909 8C9.90909 7.52261 9.70796 7.06477 9.34993 6.72721C8.99191 6.38964 8.50632 6.2 8 6.2ZM8 11C7.15613 11 6.34682 10.6839 5.75011 10.1213C5.15341 9.55871 4.81818 8.79565 4.81818 8C4.81818 7.20435 5.15341 6.44129 5.75011 5.87868C6.34682 5.31607 7.15613 5 8 5C8.84387 5 9.65318 5.31607 10.2499 5.87868C10.8466 6.44129 11.1818 7.20435 11.1818 8C11.1818 8.79565 10.8466 9.55871 10.2499 10.1213C9.65318 10.6839 8.84387 11 8 11ZM8 3.5C4.81818 3.5 2.10091 5.366 1 8C2.10091 10.634 4.81818 12.5 8 12.5C11.1818 12.5 13.8991 10.634 15 8C13.8991 5.366 11.1818 3.5 8 3.5Z" fill="#008699"/>
</svg>
